X: 337
T:Belinda. JaW.336
M:6/8
Q:120
S:James Winder Ms, Lancashire, 1835-41
R:Quadrille
O:England
A:Wyresdale,Lancashire
H:1/8
Z:vmp.Chris Partington, Aug 2004
K:G
G2Bd2d|efgd2B|(dc)A dBG|BdBA2z|!
G2Bd2d|efg d2B|dcA dBG|{B}AGAG2z:|!
|:{d}cBc Afa|{e}d^cd Bgb|efg d2B|dcBA2z|!
{d}cBc Afa|{e}d^cd Bgb|efgd2B|{B}AGAG2:|]
